images/chevron-left.svg

<svg fill="none" height="48" viewBox="0 0 48 48" width="48" xmlns="http://www.w3.org/2000/svg"><path d="m16.6 22.6 12-12c.4-.4.8-.6 1.4-.6s1 .2 1.4.6c.8.8.8 2 0 2.8l-10.6 10.6 10.6 10.6c.8.8.8 2 0 2.8s-2 .8-2.8 0l-12-12c-.8-.8-.8-2 0-2.8z" fill="#f9f9f9"/></svg>

<svg width="48" height="48" viewBox="0 0 48 48" fill="none" xmlns="http://www.w3.org/2000/svg">
<path d="M16.6 22.6L28.6 10.6C29 10.2 29.4 10 30 10C30.6 10 31 10.2 31.4 10.6C32.2 11.4 32.2 12.6 31.4 13.4L20.8 24L31.4 34.6C32.2 35.4 32.2 36.6 31.4 37.4C30.6 38.2 29.4 38.2 28.6 37.4L16.6 25.4C15.8 24.6 15.8 23.4 16.6 22.6Z" fill="#F9F9F9"/>
</svg>
